icons/evolvere-blue-folders-flat-vivid-dark-fallback/apps/64/kgpg.svg

<?xml version="1.0" encoding="UTF-8" standalone="no"?>
<!-- Created with Inkscape (http://www.inkscape.org/) -->

<svg
   xmlns:dc="http://purl.org/dc/elements/1.1/"
   xmlns:cc="http://creativecommons.org/ns#"
   xmlns:rdf="http://www.w3.org/1999/02/22-rdf-syntax-ns#"
   xmlns:svg="http://www.w3.org/2000/svg"
   xmlns="http://www.w3.org/2000/svg"
   xmlns:sodipodi="http://sodipodi.sourceforge.net/DTD/sodipodi-0.dtd"
   xmlns:inkscape="http://www.inkscape.org/namespaces/inkscape"
   width="64"
   height="64"
   id="svg13094"
   version="1.1"
   inkscape:version="0.91+devel r"
   sodipodi:docname="kgpg.svg">
  <sodipodi:namedview
     id="base"
     pagecolor="#ffffff"
     bordercolor="#666666"
     borderopacity="1.0"
     inkscape:pageopacity="0"
     inkscape:pageshadow="2"
     inkscape:zoom="11.313709"
     inkscape:cx="26.517656"
     inkscape:cy="26.667407"
     inkscape:document-units="px"
     inkscape:current-layer="svg13094"
     showgrid="true"
     inkscape:snap-bbox="true"
     inkscape:bbox-paths="true"
     inkscape:bbox-nodes="true"
     inkscape:snap-bbox-edge-midpoints="true"
     inkscape:snap-bbox-midpoints="true"
     inkscape:object-paths="true"
     inkscape:snap-intersection-paths="true"
     inkscape:object-nodes="true"
     inkscape:snap-smooth-nodes="true"
     inkscape:snap-midpoints="true"
     inkscape:snap-object-midpoints="true"
     inkscape:snap-center="true"
     showguides="true"
     inkscape:guide-bbox="true"
     inkscape:window-width="1920"
     inkscape:window-height="1023"
     inkscape:window-x="-10"
     inkscape:window-y="35"
     inkscape:window-maximized="1"
     inkscape:snap-global="true"
     fit-margin-top="0"
     fit-margin-left="0"
     fit-margin-right="0"
     fit-margin-bottom="0"
     showborder="true"
     inkscape:showpageshadow="false"
     inkscape:snap-page="true">
    <inkscape:grid
       type="xygrid"
       id="grid3075"
       empspacing="5"
       visible="true"
       enabled="true"
       snapvisiblegridlinesonly="true"
       originx="1.6362304e-08px"
       originy="18px" />
  </sodipodi:namedview>
  <defs
     id="defs13096" />
  <metadata
     id="metadata13099">
    <rdf:RDF>
      <cc:Work
         rdf:about="">
        <dc:format>image/svg+xml</dc:format>
        <dc:type
           rdf:resource="http://purl.org/dc/dcmitype/StillImage" />
        <dc:title></dc:title>
      </cc:Work>
    </rdf:RDF>
  </metadata>
  <path
     inkscape:connector-curvature="0"
     style="color:#000000;fill:#1a84d7;fill-opacity:1;fill-rule:nonzero;stroke:none;stroke-width:2.28571415;marker:none;visibility:visible;display:inline;overflow:visible;enable-background:accumulate"
     d="m 0,4 0,30 0,28 2,2 30,0 30,0 2,-2 L 64,34 64,4 32,4 0,4 z"
     id="path6498" />
  <path
     inkscape:connector-curvature="0"
     style="color:#000000;fill:#6fc8f2;fill-opacity:1;fill-rule:nonzero;stroke:none;stroke-width:2.28571415;marker:none;visibility:visible;display:inline;overflow:visible;enable-background:accumulate"
     d="M 2,0 0,1 0,4 32,4 64,4 64,1 62,0 32,0 2,0 z"
     id="path6502" />
  <path
     inkscape:connector-curvature="0"
     style="fill:#8ad2f4;fill-opacity:1;fill-rule:nonzero"
     d="M 0,3 0,6 2,4 Z"
     id="path4298"
     sodipodi:nodetypes="cccc" />
  <path
     d="M 64,6 62,4 64,3 z"
     id="path3028"
     style="fill:#42a2e0;fill-opacity:1"
     inkscape:connector-curvature="0" />
  <g
     id="g3043"
     inkscape:export-filename="folder.png"
     inkscape:export-xdpi="90"
     inkscape:export-ydpi="90"
     transform="translate(-0.62500009,0.082283)" />
  <g
     id="scalable"
     transform="matrix(1.0385892,0,0,1.0385892,1214.7222,1878.8121)"
     inkscape:label="#g3701"
     style="fill:#ffffff" />
  <g
     id="g3054">
    <path
       sodipodi:nodetypes="ssccccsccccsssscccsssss"
       inkscape:connector-curvature="0"
       id="rect3776"
       d="m 35.25,18.25 c -7.179702,0 -13,5.820298 -13,13 l 0,3 L 18,51 l 0,1 2.25,2.25 c 0,0 5.99997,0.500242 15,0.5 9.000031,-2.42e-4 15,-0.5 15,-0.5 l 0,-19 0,-1 -2,-2 0,-1 c 0,-7.179702 -5.820298,-13 -13,-13 z m 0,4 c 4.970563,0 9,4.029437 9,9 l 0,3 -9,0 -9,0 0,-3 c 0,-0.31066 5.24e-4,-0.603696 0.03125,-0.90625 0.337986,-3.32809 2.507701,-6.122582 5.46875,-7.375 0.269186,-0.113856 0.530683,-0.224846 0.8125,-0.3125 C 33.40795,22.393288 34.318019,22.25 35.25,22.25 z"
       style="color:#000000;fill:#082e58;fill-opacity:0.12432916;fill-rule:nonzero;stroke:none;stroke-width:4;marker:none;visibility:visible;display:inline;overflow:visible;enable-background:accumulate" />
    <g
       id="g4820">
      <path
         sodipodi:nodetypes="sccsccs"
         inkscape:connector-curvature="0"
         id="path4822"
         d="m 32,31 c -9.00003,0 -15,0 -15,0 l 0,1 c 0,0 5.99997,0 15,0 9.000031,0 15,0 15,0 l 0,-1 c 0,0 -5.999969,0 -15,0 z"
         style="color:#000000;fill:#ffe75c;fill-opacity:1;fill-rule:nonzero;stroke:none;stroke-width:4;marker:none;visibility:visible;display:inline;overflow:visible;enable-background:accumulate" />
      <path
         sodipodi:nodetypes="czcczcc"
         inkscape:connector-curvature="0"
         id="path4824"
         d="m 17,32 c 0,0 5.999939,0 14.999969,0 9.000031,0 14.99997,0 14.99997,0 l 0,19.000242 c 0,0 -5.999939,0.499758 -14.99997,0.5 C 22.999939,51.500484 17,51.000242 17,51.000242 z"
         style="color:#000000;fill:#cda71a;fill-opacity:1;fill-rule:nonzero;stroke:none;stroke-width:4;marker:none;visibility:visible;display:inline;overflow:visible;enable-background:accumulate" />
      <path
         sodipodi:nodetypes="cscsc"
         inkscape:connector-curvature="0"
         id="path4826"
         d="m 17,32 c 0,0 5.99997,2.5 15,2.5 9.000031,0 15,-2.5 15,-2.5 0,0 -5.999969,0 -15,0 -9.00003,0 -15,0 -15,0 z"
         style="color:#000000;fill:#efcb3e;fill-opacity:1;fill-rule:nonzero;stroke:none;stroke-width:4;marker:none;visibility:visible;display:inline;overflow:visible;enable-background:accumulate" />
      <path
         inkscape:connector-curvature="0"
         style="color:#000000;fill:#000000;fill-opacity:0.18189967;fill-rule:nonzero;stroke:none;stroke-width:4;marker:none;visibility:visible;display:inline;overflow:visible;enable-background:accumulate"
         d="m 22.21875,31 -0.125,0.6875 L 25.6875,31 22.21875,31 z"
         id="path4930" />
      <path
         id="path4892"
         d="M 44.09375 31 L 43.96875 31.6875 L 47 31.09375 L 47 31 L 44.09375 31 z "
         style="color:#000000;fill:#000000;fill-opacity:0.18189967;fill-rule:nonzero;stroke:none;stroke-width:4;marker:none;visibility:visible;display:inline;overflow:visible;enable-background:accumulate" />
      <path
         style="color:#000000;fill:#dae7ee;fill-opacity:1;fill-rule:nonzero;stroke:none;stroke-width:2.28571415;marker:none;visibility:visible;display:inline;overflow:visible;enable-background:accumulate"
         d="M 32 15 C 24.820298 15 19 20.820298 19 28 L 19 31.5 C 19 31.5 20 31.75 21 31.75 C 22 31.75 23 31.5 23 31.5 L 23 28 C 23 23.029437 27.029437 19 32 19 C 36.970563 19 41 23.029437 41 28 L 41 31.5 C 41 31.5 42 31.75 43 31.75 C 44 31.75 45 31.5 45 31.5 L 45 28 C 45 20.820298 39.179702 15 32 15 z "
         id="path4832" />
    </g>
  </g>
</svg>

<svg xmlns="http://www.w3.org/2000/svg" viewBox="0 0 64 64"><g color="#000"><path d="m0 4v30 28l2 2h30 30l2-2v-28-30h-32-32" fill="#1a84d7"/><path d="m2 0l-2 1v3h32 32v-3l-2-1h-30-30" fill="#6fc8f2"/></g><path d="m0 3v3l2-2" fill="#8ad2f4"/><path d="m64 6l-2-2 2-1z" fill="#42a2e0"/><g color="#000"><path d="m35.25 18.25c-7.18 0-13 5.82-13 13v3l-4.25 16.75v1l2.25 2.25c0 0 6 .5 15 .5 9 0 15-.5 15-.5v-19-1l-2-2v-1c0-7.18-5.82-13-13-13m0 4c4.971 0 9 4.03 9 9v3h-9-9v-3c0-.311.001-.604.031-.906.338-3.328 2.508-6.123 5.469-7.375.269-.114.531-.225.813-.313.845-.263 1.756-.406 2.688-.406" fill="#082e58" fill-opacity=".124"/><path d="m32 31c-9 0-15 0-15 0v1c0 0 6 0 15 0 9 0 15 0 15 0v-1c0 0-6 0-15 0" fill="#ffe75c"/><path d="m17 32c0 0 6 0 15 0 9 0 15 0 15 0v19c0 0-6 .5-15 .5-9 0-15-.5-15-.5z" fill="#cda71a"/><path d="m17 32c0 0 6 2.5 15 2.5 9 0 15-2.5 15-2.5 0 0-6 0-15 0-9 0-15 0-15 0" fill="#efcb3e"/><g fill-opacity=".182"><path d="m22.22 31l-.125.688 3.594-.688h-3.469"/><path d="m44.09 31l-.125.688 3.03-.594v-.094h-2.906"/></g><path d="m32 15c-7.18 0-13 5.82-13 13v3.5c0 0 1 .25 2 .25 1 0 2-.25 2-.25v-3.5c0-4.971 4.03-9 9-9 4.971 0 9 4.03 9 9v3.5c0 0 1 .25 2 .25 1 0 2-.25 2-.25v-3.5c0-7.18-5.82-13-13-13" fill="#dae7ee"/></g></svg>
